src/assets/filled/Eos.svg

<svg width="24" height="24" viewBox="0 0 24 24"  xmlns="http://www.w3.org/2000/svg">
<path d="M9.28012 20.3094C9.45012 20.7894 8.93011 21.2294 8.49011 20.9694L5.34012 19.1794C4.77012 18.8494 4.42013 18.0594 4.54013 17.4194L5.48013 12.7494C5.59013 12.1994 6.35013 12.1494 6.54013 12.6694L9.28012 20.3094Z" />
<path d="M18.66 19.1808L15.5 20.9808C15.06 21.2308 14.54 20.8008 14.71 20.3208L17.46 12.6108C17.65 12.0908 18.41 12.1408 18.52 12.6908L19.47 17.4208C19.58 18.0608 19.23 18.8508 18.66 19.1808Z" />
<path d="M17.08 7.32031C17.32 7.62031 17.39 8.02031 17.26 8.38031L12.52 21.6303C12.35 22.1203 11.66 22.1203 11.49 21.6303L6.74999 8.39031C6.61999 8.03031 6.68999 7.63031 6.92999 7.33031L10.75 2.63031C11.44 1.80031 12.58 1.80031 13.28 2.63031L17.08 7.32031Z" />
</svg>

<?xml version="1.0" encoding="UTF-8"?>
<svg width="24" height="24" viewBox="0 0 24 24" xmlns="http://www.w3.org/2000/svg">
 <path d="m9.2801 20.309c0.17 0.48-0.35001 0.92-0.79001 0.66l-3.15-1.79c-0.57-0.33-0.91999-1.12-0.79999-1.76l0.94-4.67c0.11-0.55 0.87-0.6 1.06-0.08l2.74 7.64z"/>
 <path d="m18.66 19.181-3.16 1.8c-0.44 0.25-0.96-0.18-0.79-0.66l2.75-7.71c0.19-0.52 0.95-0.47 1.06 0.08l0.95 4.73c0.11 0.64-0.24 1.43-0.81 1.76z"/>
 <path d="m17.08 7.3203c0.24 0.3 0.31 0.7 0.18 1.06l-4.74 13.25c-0.17 0.49-0.86 0.49-1.03 0l-4.74-13.24c-0.13-0.36-0.06-0.76 0.18-1.06l3.82-4.7c0.69-0.83 1.83-0.83 2.53 0l3.8 4.69z"/>
</svg>
